Gruvbox-Plus-Dark/actions/16/process-stop.svg

<svg xmlns="http://www.w3.org/2000/svg" width="16" height="16" viewBox="0 0 16 16">
 <defs>
  <style id="current-color-scheme" type="text/css">
   .ColorScheme-Text { color:#ebdbb2; } .ColorScheme-Highlight { color:#458588; }
  </style>
 </defs>
 <path style="fill:currentColor" class="ColorScheme-Text" d="M 5.2167969 1 L 4.9042969 1.28125 L 1.2792969 4.90625 L 0.99804688 5.21875 L 0.99804688 10.78125 L 1.2792969 11.09375 L 4.9042969 14.71875 L 5.2167969 15 L 10.779297 15 L 11.091797 14.71875 L 14.716797 11.09375 L 14.998047 10.78125 L 14.998047 5.21875 L 14.716797 4.90625 L 11.091797 1.28125 L 10.779297 1 L 5.2167969 1 z M 5.9980469 3 L 9.9980469 3 L 12.998047 6 L 12.998047 10 L 9.9980469 13 L 5.9980469 13 L 2.9980469 10 L 2.9980469 6 L 5.9980469 3 z M 6.4355469 4 L 3.9980469 6.4375 L 3.9980469 9.5625 L 6.4355469 12 L 9.5605469 12 L 11.998047 9.5625 L 11.998047 6.4375 L 9.5605469 4 L 6.4355469 4 z"/>
</svg>

<svg width="16" height="16" version="1.1" viewBox="0 0 16 16" xmlns="http://www.w3.org/2000/svg">
  <defs>
    <style type="text/css">.ColorScheme-Text { color:#ebdbb2; } .ColorScheme-Highlight { color:#458588; }</style>
  </defs>
  <path class="ColorScheme-Text" d="m5.217 1-4.219 4.219v5.562l4.219 4.219h5.563l4.219-4.219v-5.562l-4.219-4.219zm0.7812 2h4l3 3v4l-3 3h-4l-3-3v-4zm0.4375 1-2.438 2.438v3.125l2.438 2.438h3.125l2.438-2.438v-3.125l-2.438-2.438z" fill="currentColor"/>
</svg>
